Pods/ProtonCore-UIFoundations/libraries/UIFoundations/Sources/Assets.xcassets/Images/IconSet/ic-forward.imageset/ic-forward.svg

<svg width="24" height="24" viewBox="0 0 24 24" fill="none" xmlns="http://www.w3.org/2000/svg">
<path fill-rule="evenodd" clip-rule="evenodd" d="M12.4697 3.06333C12.7421 2.94366 13.0596 2.9964 13.2787 3.19775L22.2574 11.4477C22.412 11.5898 22.5 11.7901 22.5 12C22.5 12.2099 22.412 12.4103 22.2574 12.5523L13.2787 20.8023C13.0596 21.0036 12.7421 21.0564 12.4697 20.9367C12.1972 20.817 12.0213 20.5476 12.0213 20.25L12.0212 15.7203C10.4112 15.7365 6.22533 16.238 2.92046 20.6672C2.76508 20.8754 2.50883 20.9975 2.23682 20.9733C2.09428 20.9606 1.92619 20.9041 1.78365 20.7707C1.63496 20.6315 1.56139 20.4525 1.54585 20.2845C1.52181 20.0246 1.41108 18.6212 1.6555 16.902C1.89801 15.1961 2.50408 13.0789 3.99308 11.4876C5.33519 10.0533 7.17813 9.26836 8.7766 8.83203C10.0887 8.47385 11.2889 8.33642 12.0212 8.28347L12.0213 3.75001C12.0213 3.45243 12.1972 3.18299 12.4697 3.06333ZM13.5212 5.45766L13.5212 8.70002C13.5212 9.27226 13.0687 9.73328 12.5069 9.75754C11.9529 9.78148 10.6335 9.88002 9.1716 10.2791C7.69929 10.681 6.16047 11.3667 5.08836 12.5125C3.90333 13.7789 3.36417 15.5403 3.14056 17.1131C3.08446 17.5077 3.0491 17.8842 3.02788 18.2296C6.90058 14.2415 11.3581 14.1698 12.5459 14.2307C13.1217 14.2602 13.5212 14.7408 13.5212 15.265L13.5212 18.5424L20.6415 12L13.5212 5.45766Z" fill="#0C0C14"/>
</svg>

<svg xmlns="http://www.w3.org/2000/svg" width="24" height="24" viewBox="0 0 24 24">
  <g class="ic-forward">
    <path fill-rule="evenodd" d="M12.47 3.063a.75.75 0 0 1 .809.135l8.978 8.25a.75.75 0 0 1 0 1.104l-8.978 8.25a.75.75 0 0 1-1.258-.552v-4.53c-1.61.016-5.796.518-9.1 4.947a.769.769 0 0 1-1.137.104.762.762 0 0 1-.238-.486c-.024-.26-.135-1.664.11-3.383.242-1.706.848-3.823 2.337-5.414 1.342-1.435 3.185-2.22 4.784-2.656a17.35 17.35 0 0 1 3.244-.549V3.75a.75.75 0 0 1 .449-.687Zm1.051 2.395V8.7a1.06 1.06 0 0 1-1.014 1.058c-.554.023-1.873.122-3.335.521-1.473.402-3.012 1.088-4.084 2.233-1.185 1.267-1.724 3.028-1.947 4.601-.057.395-.092.771-.113 1.117 3.873-3.989 8.33-4.06 9.518-4 .576.03.975.51.975 1.035v3.277L20.641 12l-7.12-6.542Z" class="Icon"/>
  </g>
</svg>
